X:1
T:When Wild War's Deadly Blast
M:4/4
L:1/8
K:G
G-A| B2 D3/2- E/2 D2 G3/2- F/2| E3/2- D/2E-G A2G-A| B2 D2c-BA-G| E3- F G2|\
G-A| B2 D3/2 E/2 D2 G3/2- F/2| E3/2- D/2E-G A2G-A| BB D2c-BA-G| E3- F G2|\
 D2|G-AB-c d3 d|e-dc-B A3 D| G3/2- A/2B-c d3/2- e/2d-c| B3- c d2| z D|\
G-AB-c d2c-d|e-dc-B A2 G3/2- A/2| B2 D2c-BA-G| E3- F G2||
